X:1
T:Waltz No 2. for Flute Quartet
T:Dmitri Shostakovich Arr. Jess Macfarlane
%%score 1 ( 2 3 ) 4 5
L:1/8
Q:1/4=175
M:3/4
K:Eb
V:1 treble nm="Flute" snm="Fl."
V:2 treble nm="Flute" snm="Fl."
V:3 treble 
V:4 treble nm="Flute" snm="Fl."
V:5 treble nm="Flute" snm="Fl."
V:1
"^Adagio" c6 | G6 | c6 | G6 | c6 | G6 | c6 | G6 | c6 | G6 | z2 .c'2 .c'2 | z2 .=b2 .b2 | %12
 z2 .A2 .A2 | z2 .A2 .A2 | z2 .G2 .G2 | z2 .D2 .D2 | z2 .F2 .F2 | z2 .f2 .f2 | z2 .c2 .c2 | %19
 z2 .c2 .c2 | z2 .g2 .g2 | z2 .g2 .g2 | z2 .f2 .f2 | z2 .f2 .f2 | z2 .f2 .f2 | z2 .f2 .g2 | %26
 z2 .g2 .g2 | z2 e2 f2 | g2 gf ga | f2 fe fg | .e2 z2 .g2 | z2 e2 f2 | g2 gf ga | f2 fe fg | %34
 .e2 z2 .g2 | z2 c'2 d'2 | e'2 e'd' e'f' | d'2 d'c' d'e' | c'2 z4 :| z2 z2 d'2 | e'6 | e'6 | %42
 e'2 d'2 c'2 | b2 g2 b2 | d'6 | d'6 | c'2 b2 g2 | e2 f2 g2 | c'6 | b6 | b2 a2 g2 | f2 e2 f2 | %52
 (g4 b2) | (f4 b2) | (g4 b2) | (e'4 f'2) | g'6 | g'6 | (g'2 f'2) e'2 | d'2 b2 d'2 | f'6 | f'6 | %62
 f'2 e'2 d'2 | c'2 g2 b2 | e'6 | e'6 | e'6 | f'2 e'2 f'2 | g'4 e'2 | b2 c'2 d'2 | e'2 f'2 e'2 | %71
 _d'2 c'2 =b2 |: c'4 e2- | e2 d2 e2 | c'4 e2- | e2 _d'2 c'2 | c'4 b2 | =a4 b2 | f'4 e'2 | g4 g2 | %80
 a4 c2- | c2 =B2 c2 | a4 c2- | c2 _d2 e2 | f4 g2 | g4 a2 | b2 a2 b2 |1 g4 _d'2 :|2 z2 .=b2 .b2 || %89
 !fermata!=b4 d2 | c6 | G6 | c6 | G6 | g6 | e4 d2 | c6- | c2 c2 d2 | e2 c2 e2 | g4 a2 | g6 | f6 | %102
 f6 | d4 c2 | =B6- | B2 G2 =B2 | d2 =B2 d2 | (f2 g2) a2 | ^f6 | g6 | z2 .g2 .g2 | z2 .g2 .g2 | %112
 z2 .f2 .f2 | z2 .f2 .f2 | z2 .f2 .f2 | z2 .f2 .g2 | z2 .g2 .g2 | z2 e2 f2 | g2 gf ga | f2 fe fg | %120
 .e2 z2 .g2 | z2 e2 f2 | g2 gf ga | f2 fe fg | .e2 z2 .g2 | z2 c'2 d'2 | e'2 e'd' e'f' | %127
 d'2 d'c' d'e' | c'2 z2 g2 | !^!c'2 z4 |] %130
V:2
 c2 .g2 .g2 | c2 .g2 .g2 | c2 .g2 .g2 | c2 .g2 .g2 | g6 | e4 d2 | c6- | c2 c2 d2 | e2 c2 e2 | %9
 g4 a2 | g6 | f6 | z2 .c2 .c2 | z2 .c2 .c2 | z2 .F2 .F2 | z2 .F2 .F2 | z2 .G2 .G2 | z2 .=b2 .b2 | %18
 z2 .e2 .e2 | z2 .e2 .e2 | c'6 | g6 | f6 | z2 .c2 .c2 | B6 | A4 A2 | G6 | .A2 z4 | G2 z2 z2 | %29
 A2 z2 z2 | G2 z2 z2 | A2 z2 z2 | G2 z2 z2 | A2 z2 z2 | G2 z2 z2 | z2 c2 d2 | e2 ed ef | d2 dc de | %38
 c2 z4 :| z2 z2 a2 | b6 | b6 | z2 .b2 .b2 | z2 .b2 .b2 | z2 .b2 .b2 | z2 .b2 .b2 | z2 .b2 .b2 | %47
 z2 .b2 .b2 | =e6 | =e6 | F2 c2 c2 | z2 c2 c2 | z2 g2 g2 | z2 a2 a2 | z2 .G2 .G2 | z2 .G2 .G2 | %56
 z2 .g2 .g2 | z2 .g2 .g2 | z2 .g2 .g2 | z2 .g2 .g2 | z2 .b2 .b2 | z2 .b2 .b2 | z2 .b2 .b2 | %63
 z2 .b2 .b2 | z2 .b2 .b2 | z2 .b2 .b2 | z2 .b2 .b2 | z2 .f2 .f2 | z2 .g2 .g2 | z2 .a2 .a2 | %70
 g2 z2 z2 | g6 |: a4 c2- | c2 =B2 c2 | a4 c2- | c2 f2 e2 | g4 g2 | g4 g2 | b4 b2 | _d'2 c'2 =b2 | %80
 c'4 e2- | e2 d2 e2 | c'4 e2- | e2 f2 g2 | a4 b2 | c'4 c'2 | d'2 c'2 d'2 |1 e'4 _d'2 :|2 g z z4 || %89
 !fermata!e'4 z2 | c2 .g2 .g2 | c2 .g2 .g2 | c2 .g2 .g2 | c2 .g2 .g2 | c6 | G6 | c6 | G6 | c6 | %99
 G6 | z2 .c'2 .c'2 | z2 .=b2 .b2 | z2 .c2 .c2 | z2 .c2 .c2 | z2 .F2 .F2 | z2 .F2 .F2 | z2 .G2 .G2 | %107
 z2 .=b2 .b2 | z2 .e2 .e2 | z2 .e2 .e2 | c'6 | g6 | f6 | z2 .c2 .c2 | B6 | A4 A2 | G6 | .A2 z4 | %118
 G4 z2 | A4 z2 | G4 z2 | A4 z2 | G4 z2 | A4 z2 | G4 z2 | z2 c2 d2 | e2 ed ef | d2 dc de | %128
 c2 z2 z2 | !^!g2 z4 |] %130
V:3
 x6 | x6 | x6 | x6 | x6 | x6 | x6 | x6 | x6 | x6 | x6 | x6 | x6 | x6 | x6 | x6 | x6 | x6 | x6 | %19
 x6 | x6 | x6 | x6 | x6 | x6 | x6 | x6 | x6 | x6 | x6 | x6 | x6 | x6 | x6 | x6 | x6 | x6 | x6 | %38
 x6 :| x6 | x6 | x6 | x6 | x6 | x6 | x6 | x6 | x6 | x6 | x6 | x6 | x6 | x6 | x6 | x6 | x6 | x6 | %57
 x6 | x6 | x6 | B6 | B6 | B6 | B6 | x6 | x6 | x6 | x6 | x6 | x6 | x6 | x6 |: x6 | x6 | x6 | x6 | %76
 x6 | x6 | x6 | x6 | x6 | x6 | x6 | x6 | x6 | x6 | x6 |1 x6 :|2 x6 || x6 | x6 | x6 | x6 | x6 | x6 | %95
 x6 | x6 | x6 | x6 | x6 | x6 | x6 | x6 | x6 | x6 | x6 | x6 | x6 | x6 | x6 | x6 | x6 | x6 | x6 | %114
 x6 | x6 | x6 | x6 | x6 | x6 | x6 | x6 | x6 | x6 | x6 | x6 | x6 | x6 | x6 | x6 |] %130
V:4
 z2 .e2 .e2 | z2 .e2 .e2 | z2 .e2 .e2 | z2 .e2 .e2 | z2 .e2 .e2 | z2 .e2 .e2 | z2 .e2 .e2 | %7
 z2 .e2 .e2 | z2 .e2 .e2 | z2 .e2 .e2 | z2 .g2 .g2 | z2 .g2 .g2 | f6 | d4 c2 | =B6- | B2 G2 =B2 | %16
 d2 =B2 d2 | (f2 g2) a2 | ^f6 | g6 | g6 | e6 | z2 .A2 .A2 | z2 .A2 .A2 | F6 | F4 .F2 | E6 | %27
 z2 c2 d2 | e2 ed ef | d2 dc de | .c2 z2 .e2 | z2 c2 d2 | e2 ed ef | d2 dc de | .c2 z2 .e2 | %35
 z2 e2 f2 | g2 gf ga | f2 fe fg | e2 z4 :| z2 z2 b2 | g6 | g6 | g2 b2 a2 | g2 e2 g2 | b6 | b6 | %46
 a2 g2 e2 | c2 d2 e2 | g6 | g6 | g2 f2 =e2 | f2 _e2 f2 | (e4 g2) | (d4 a2) | (e4 g2) | (g4 b2) | %56
 e'6 | e'6 | (e'2 d'2) c'2 | b2 g2 b2 | d'6 | d'6 | d'2 c'2 b2 | a2 e2 g2 | g6 | g6 | a6 | %67
 a2 g2 a2 | b4 g2 | d2 e2 f2 | g2 f2 e2 | e6 |: e6 | z6 | e6 | z6 | e4 e2 | e4 e2 | g4 g2 | %79
 f2 e2 d2 | z2 .c'2 .c'2 | z2 .c'2 .c'2 | z2 .c'2 .c'2 | z2 .f2 .f2 | z2 .f2 .f2 | z2 .d2 .d2 | %86
 z2 .g2 .g2 |1 z2 .g2 .g2 :|2 z2 .g2 .g2 || !fermata!e4 z2 | z2 .e2 .e2 | z2 .e2 .e2 | z2 .e2 .e2 | %93
 z2 .e2 .e2 | z2 .e2 .e2 | z2 .e2 .e2 | z2 .e2 .e2 | z2 .e2 .e2 | z2 .e2 .e2 | z2 .e2 .e2 | %100
 z2 .g2 .g2 | z2 .g2 .g2 | z2 .A2 .A2 | z2 .A2 .A2 | z2 .G2 .G2 | z2 .D2 .D2 | z2 .F2 .F2 | %107
 z2 .f2 .f2 | z2 .c2 .c2 | z2 .c2 .c2 | e'6 | d'4 c'2 | b4 a2 | f6 | d'6 | c'4 .b2 | b6 | %117
 z2 c2 d2 | e2 ed ef | d2 dc de | .c2 z2 .e2 | z2 c2 d2 | e2 ed ef | d2 dc de | .c2 z2 .e2 | %125
 z2 e2 f2 | g2 gf ga | f2 fe fg | e2 z2 f2 | !^!e2 z4 |] %130
V:5
 G2 .c2 .c2 | G2 .c2 .c2 | G2 .c2 .c2 | G2 .c2 .c2 | z2 .g2 .g2 | z2 .g2 .g2 | z2 .g2 .g2 | %7
 z2 .g2 .g2 | z2 .g2 .g2 | z2 .g2 .g2 | d6 | G6 | D6 | G6 | D6 | G6 | D6 | G6 | c6 | G6 | e'6 | %21
 d'4 c'2 | b4 a2 | f6 | d'6 | c'4 .b2 | b6 | c2 z4 | c2 z4 | c2 z4 | z6 | z6 | c2 z4 | c2 z4 | %34
 c2 z2 .c2 | A4 z2 | G4 z2 | G4 z2 | c2 z4 :| z6 | z2 .g2 .g2 | z2 .g2 .g2 | z2 .d2 .d2 | %43
 z2 .e2 .e2 | z2 .a2 .a2 | z2 .a2 .a2 | z2 .g2 .g2 | z2 .g2 .g2 | z2 .=e2 .e2 | z2 .=e2 .e2 | %50
 F2 A2 c2 | A6 | e6 | B6 | e6 | B6 | e6 | B6 | e6 | B6 | z2 .a2 .a2 | z2 .a2 .a2 | z2 .a2 .a2 | %63
 z2 .a2 .a2 | e6 | _d6 | c6 | _c6 | B6 | B6 | e2 z4 | _d6 |: z2 .e2 .e2 | z2 .e2 .e2 | z2 .e2 .e2 | %75
 z2 .e2 .e2 | z2 .e2 .e2 | z2 .e2 .e2 | z2 .e2 .e2 | z2 .e2 .e2 | z2 .e2 .e2 | z2 .e2 .e2 | %82
 z2 .e2 .e2 | z2 .e2 .e2 | z2 .a2 .a2 | z2 .a2 .a2 | z2 .a2 .a2 |1 z2 .b2 .b2 :|2 ef ed ef || %89
 !fermata!g4 z2 | G2 .c2 .c2 | G2 .c2 .c2 | G2 .c2 .c2 | G2 .c2 .c2 | z2 .g2 .g2 | z2 .g2 .g2 | %96
 z2 .g2 .g2 | z2 .g2 .g2 | z2 .g2 .g2 | z2 .g2 .g2 | d6 | G6 | D6 | G6 | D6 | G6 | D6 | G6 | c6 | %109
 G6 | g6 | e6 | z2 .A2 .A2 | z2 .A2 .A2 | F6 | F4 .F2 | E6 | .c2 z4 | .c2 z4 | .c2 z4 | z6 | z6 | %122
 .c2 z4 | .c2 z4 | .c2 z2 .c2 | A4 z2 | G4 z2 | G4 z2 | c2 z2 =B2 | !^!c2 z4 |] %130

